X: 1
T: Burlesque, The
M: 6/8
L: 1/8
R: jig
K: Dmaj
|: fdf ecA | B/c/dB AFD | EFG ABc | def ecA |
fdf ecA | B/c/dB AFD | EFG Agf | edc d3 :|
|: ABA AFA | B/c/dB AFA | Bcd efg | Bgf ecA |
fdf ecA | B/c/dB AFD | EFG Agf | edc d3 :|
